src/assets/filled/MusicSquareAdd.svg

<svg width="24" height="24" viewBox="0 0 24 24"  xmlns="http://www.w3.org/2000/svg">
<path d="M19.21 15.01C18.12 14.94 17 15.34 16.17 16.17C14.61 17.73 14.61 20.26 16.17 21.83C16.7 22.36 17.35 22.71 18.04 22.88C18.42 22.98 18.82 23.01 19.22 22.99C20.17 22.95 21.1 22.57 21.83 21.84C22.86 20.81 23.21 19.36 22.88 18.05C22.72 17.36 22.36 16.71 21.83 16.18C21.11 15.45 20.17 15.06 19.21 15.01ZM21.24 18.98C21.24 19.19 21.16 19.37 21.02 19.51C20.88 19.65 20.7 19.73 20.49 19.73H19.75V20.51C19.75 20.72 19.67 20.9 19.53 21.04C19.39 21.18 19.21 21.26 19 21.26C18.59 21.26 18.25 20.92 18.25 20.51V19.73H17.5C17.09 19.73 16.75 19.39 16.75 18.98C16.75 18.57 17.09 18.23 17.5 18.23H18.25V17.52C18.25 17.11 18.59 16.77 19 16.77C19.41 16.77 19.75 17.11 19.75 17.52V18.23H20.49C20.91 18.23 21.24 18.57 21.24 18.98Z" />
<path d="M12.23 12.0701C11.82 12.0701 11.49 12.4001 11.49 12.8101C11.49 13.2201 11.82 13.5501 12.23 13.5501C12.64 13.5501 12.97 13.2201 12.97 12.8101C12.97 12.4001 12.64 12.0701 12.23 12.0701Z" />
<path d="M6.76002 13.0601C6.35002 13.0601 6.02002 13.3901 6.02002 13.8001C6.02002 14.2101 6.35002 14.5401 6.76002 14.5401C7.17002 14.5401 7.50002 14.2101 7.50002 13.8001C7.50002 13.3901 7.17002 13.0601 6.76002 13.0601Z" />
<path d="M16.19 2H7.81C7.53 2 7.26 2.01 7 2.05C3.85 2.34 2 4.45 2 7.81V16.19C2 19.55 3.85 21.66 7 21.95C7.26 21.99 7.53 22 7.81 22H13.5C13.89 22 14.14 21.56 13.99 21.2C13.7 20.51 13.5 19.71 13.5 19C13.5 15.97 15.97 13.5 19 13.5C19.76 13.5 20.5 13.65 21.18 13.95C21.55 14.11 22 13.86 22 13.46V7.81C22 4.17 19.83 2 16.19 2ZM14.48 8.05V12.81C14.48 12.82 14.47 12.83 14.47 12.85C14.45 14.07 13.46 15.06 12.23 15.06C10.99 15.06 9.99 14.05 9.99 12.82C9.99 11.58 11 10.58 12.23 10.58C12.49 10.58 12.74 10.63 12.98 10.72V9.03L9.01 10.11V13.81C9.01 13.82 9 13.83 9 13.84C8.98 15.06 7.99 16.04 6.76 16.04C5.52 16.04 4.52 15.03 4.52 13.8C4.52 12.57 5.53 11.56 6.76 11.56C7.02 11.56 7.27 11.61 7.5 11.7V9.54V7.79C7.5 6.86 8.08 6.11 8.97 5.87L11.95 5.05C12.88 4.8 13.45 5.05 13.77 5.29C14.23 5.64 14.46 6.21 14.46 6.97V8.05H14.48Z" />
</svg>

<?xml version="1.0" encoding="UTF-8"?>
<svg width="24" height="24" viewBox="0 0 24 24" xmlns="http://www.w3.org/2000/svg">
 <path d="m19.21 15.01c-1.09-0.07-2.21 0.33-3.04 1.16-1.56 1.56-1.56 4.09 0 5.66 0.53 0.53 1.18 0.88 1.87 1.05 0.38 0.1 0.78 0.13 1.18 0.11 0.95-0.04 1.88-0.42 2.61-1.15 1.03-1.03 1.38-2.48 1.05-3.79-0.16-0.69-0.52-1.34-1.05-1.87-0.72-0.73-1.66-1.12-2.62-1.17zm2.03 3.97c0 0.21-0.08 0.39-0.22 0.53s-0.32 0.22-0.53 0.22h-0.74v0.78c0 0.21-0.08 0.39-0.22 0.53s-0.32 0.22-0.53 0.22c-0.41 0-0.75-0.34-0.75-0.75v-0.78h-0.75c-0.41 0-0.75-0.34-0.75-0.75s0.34-0.75 0.75-0.75h0.75v-0.71c0-0.41 0.34-0.75 0.75-0.75s0.75 0.34 0.75 0.75v0.71h0.74c0.42 0 0.75 0.34 0.75 0.75z"/>
 <path d="m12.23 12.07c-0.41 0-0.74 0.33-0.74 0.74s0.33 0.74 0.74 0.74 0.74-0.33 0.74-0.74-0.33-0.74-0.74-0.74z"/>
 <path d="m6.76 13.06c-0.41 0-0.74 0.33-0.74 0.74s0.33 0.74 0.74 0.74 0.74-0.33 0.74-0.74-0.33-0.74-0.74-0.74z"/>
 <path d="m16.19 2h-8.38c-0.28 0-0.55 0.01-0.81 0.05-3.15 0.29-5 2.4-5 5.76v8.38c0 3.36 1.85 5.47 5 5.76 0.26 0.04 0.53 0.05 0.81 0.05h5.69c0.39 0 0.64-0.44 0.49-0.8-0.29-0.69-0.49-1.49-0.49-2.2 0-3.03 2.47-5.5 5.5-5.5 0.76 0 1.5 0.15 2.18 0.45 0.37 0.16 0.82-0.09 0.82-0.49v-5.65c0-3.64-2.17-5.81-5.81-5.81zm-1.71 6.05v4.76c0 0.01-0.01 0.02-0.01 0.04-0.02 1.22-1.01 2.21-2.24 2.21-1.24 0-2.24-1.01-2.24-2.24 0-1.24 1.01-2.24 2.24-2.24 0.26 0 0.51 0.05 0.75 0.14v-1.69l-3.97 1.08v3.7c0 0.01-0.01 0.02-0.01 0.03-0.02 1.22-1.01 2.2-2.24 2.2-1.24 0-2.24-1.01-2.24-2.24s1.01-2.24 2.24-2.24c0.26 0 0.51 0.05 0.74 0.14v-3.91c0-0.93 0.58-1.68 1.47-1.92l2.98-0.82c0.93-0.25 1.5 0 1.82 0.24 0.46 0.35 0.69 0.92 0.69 1.68v1.08h0.02z"/>
</svg>
